flaticon/files-and-folders/clipboard-7.svg

<svg xmlns="http://www.w3.org/2000/svg" width="32" height="32" viewBox="0 0 24 24">
    <path d="M14.921875 23.199219L14.121094 23.199219C13.878906 23.199219 13.71875 23.359375 13.71875 23.601562 13.71875 23.839844 13.878906 24 14.121094 24L14.921875 24C15.121094 24 15.320312 23.839844 15.320312 23.601562 15.320312 23.359375 15.160156 23.199219 14.921875 23.199219zM10.121094 23.199219L9.320312 23.199219C9.078125 23.199219 8.921875 23.359375 8.921875 23.601562 8.921875 23.839844 9.078125 24 9.320312 24L10.121094 24C10.320312 24 10.519531 23.839844 10.519531 23.601562 10.519531 23.359375 10.359375 23.199219 10.121094 23.199219zM12.519531 23.199219L11.71875 23.199219C11.480469 23.199219 11.320312 23.359375 11.320312 23.601562 11.320312 23.839844 11.480469 24 11.71875 24L12.519531 24C12.71875 24 12.921875 23.839844 12.921875 23.601562 12.921875 23.359375 12.761719 23.199219 12.519531 23.199219zM7.71875 23.199219L6.921875 23.199219C6.679688 23.199219 6.519531 23.359375 6.519531 23.601562 6.519531 23.839844 6.679688 24 6.921875 24L7.71875 24C7.921875 24 8.121094 23.839844 8.121094 23.601562 8.121094 23.359375 7.960938 23.199219 7.71875 23.199219zM17.320312 23.199219L16.519531 23.199219C16.28125 23.199219 16.121094 23.359375 16.121094 23.601562 16.121094 23.839844 16.28125 24 16.519531 24L17.320312 24C17.519531 24 17.71875 23.839844 17.71875 23.601562 17.71875 23.359375 17.558594 23.199219 17.320312 23.199219zM20.398438 4.800781C20.398438 3.777344 19.664062 2.953125 18.683594 2.820312 18.648438 2.808594 18.605469 2.800781 18.558594 2.800781 18.480469 2.800781 18.441406 2.800781 18.398438 2.800781L16.398438 2.800781 16.398438 2.398438C16.398438 1.960938 16.039062 1.601562 15.601562 1.601562L14.398438 1.601562 14.398438 1.199219C14.398438.519531 13.878906 0 13.199219 0L10.800781 0C10.121094 0 9.601562.558594 9.601562 1.199219L9.601562 1.601562 8.398438 1.601562C7.960938 1.601562 7.601562 1.960938 7.601562 2.398438L7.601562 2.800781 5.601562 2.800781C5.460938 2.800781 5.328125 2.8125 5.199219 2.839844 5.1875 2.839844 5.171875 2.839844 5.160156 2.839844 5.136719 2.84375 5.113281 2.851562 5.089844 2.863281 4.484375 3.015625 3.996094 3.441406 3.757812 4.007812 3.742188 4.03125 3.730469 4.054688 3.71875 4.078125 3.664062 4.25 3.628906 4.417969 3.609375 4.585938 3.609375 4.589844 3.609375 4.59375 3.609375 4.597656 3.605469 4.625 3.605469 4.652344 3.605469 4.675781 3.601562 4.683594 3.601562 4.691406 3.601562 4.699219 3.601562 4.734375 3.601562 4.765625 3.601562 4.800781L3.601562 22C3.601562 22.609375 3.863281 23.148438 4.28125 23.511719 4.300781 23.546875 4.328125 23.578125 4.359375 23.601562 4.601562 23.800781 4.921875 23.960938 5.238281 24 5.28125 24 5.28125 24 5.320312 24 5.347656 24 5.375 23.996094 5.402344 23.992188 5.46875 23.996094 5.53125 24 5.601562 24 5.71875 24 5.839844 23.960938 5.921875 23.839844L20.261719 5.113281C20.351562 5.042969 20.398438 4.933594 20.398438 4.800781zM8.398438 2.398438L10 2.398438C10.238281 2.398438 10.398438 2.238281 10.398438 2L10.398438 1.199219C10.398438.960938 10.558594.800781 10.800781.800781L13.199219.800781C13.441406.800781 13.601562 1 13.601562 1.199219L13.601562 2C13.601562 2.238281 13.761719 2.398438 14 2.398438L15.601562 2.398438 15.601562 5.199219 8.398438 5.199219zM5.398438 23.199219C4.839844 23.078125 4.398438 22.601562 4.398438 22L4.398438 4.800781C4.398438 4.679688 4.441406 4.519531 4.480469 4.398438 4.492188 4.367188 4.496094 4.335938 4.5 4.304688 4.644531 3.976562 4.925781 3.730469 5.28125 3.640625 5.292969 3.640625 5.324219 3.640625 5.359375 3.640625 5.398438 3.621094 5.433594 3.613281 5.472656 3.605469 5.511719 3.601562 5.554688 3.601562 5.601562 3.601562L7.601562 3.601562 7.601562 5.191406C7.59375 5.234375 7.589844 5.277344 7.601562 5.320312 7.675781 5.691406 7.953125 5.957031 8.3125 5.996094 8.316406 5.996094 8.316406 5.996094 8.320312 5.996094 8.347656 6 8.371094 6 8.398438 6L15.601562 6C15.761719 6 15.921875 5.960938 16.039062 5.878906 16.089844 5.851562 16.128906 5.8125 16.160156 5.769531 16.308594 5.625 16.398438 5.421875 16.398438 5.199219L16.398438 3.601562 18.398438 3.601562C18.808594 3.601562 19.183594 3.824219 19.402344 4.15625 19.410156 4.183594 19.421875 4.214844 19.441406 4.238281 19.46875 4.277344 19.492188 4.316406 19.511719 4.359375 19.539062 4.417969 19.558594 4.480469 19.574219 4.546875 19.585938 4.59375 19.589844 4.640625 19.59375 4.6875zM20 6C19.761719 6 19.601562 6.160156 19.601562 6.398438L19.601562 7.199219C19.601562 7.441406 19.761719 7.601562 20 7.601562 20.238281 7.601562 20.398438 7.441406 20.398438 7.199219L20.398438 6.398438C20.398438 6.160156 20.238281 6 20 6zM20 10.800781C19.761719 10.800781 19.601562 10.960938 19.601562 11.199219L19.601562 12C19.601562 12.238281 19.761719 12.398438 20 12.398438 20.238281 12.398438 20.398438 12.238281 20.398438 12L20.398438 11.199219C20.398438 10.960938 20.238281 10.800781 20 10.800781zM20 13.199219C19.761719 13.199219 19.601562 13.359375 19.601562 13.601562L19.601562 14.398438C19.601562 14.640625 19.761719 14.800781 20 14.800781 20.238281 14.800781 20.398438 14.640625 20.398438 14.398438L20.398438 13.601562C20.398438 13.359375 20.238281 13.199219 20 13.199219zM19.28125 22.800781C19.160156 22.960938 19 23.039062 18.800781 23.121094 18.601562 23.199219 18.480469 23.441406 18.558594 23.640625 18.601562 23.800781 18.761719 23.921875 18.921875 23.921875 18.960938 23.921875 19 23.921875 19 23.878906 19.320312 23.800781 19.601562 23.601562 19.839844 23.359375 20 23.199219 20 22.960938 19.839844 22.800781 19.679688 22.640625 19.441406 22.640625 19.28125 22.800781zM20 8.398438C19.761719 8.398438 19.601562 8.558594 19.601562 8.800781L19.601562 9.601562C19.601562 9.839844 19.761719 10 20 10 20.238281 10 20.398438 9.839844 20.398438 9.601562L20.398438 8.800781C20.398438 8.558594 20.238281 8.398438 20 8.398438zM20 20.398438C19.761719 20.398438 19.601562 20.558594 19.601562 20.800781L19.601562 21.601562C19.601562 21.839844 19.761719 22 20 22 20.238281 22 20.398438 21.839844 20.398438 21.601562L20.398438 20.800781C20.398438 20.558594 20.238281 20.398438 20 20.398438zM20 15.601562C19.761719 15.601562 19.601562 15.761719 19.601562 16L19.601562 16.800781C19.601562 17.039062 19.761719 17.199219 20 17.199219 20.238281 17.199219 20.398438 17.039062 20.398438 16.800781L20.398438 16C20.398438 15.761719 20.238281 15.601562 20 15.601562zM20 18C19.761719 18 19.601562 18.160156 19.601562 18.398438L19.601562 19.199219C19.601562 19.441406 19.761719 19.601562 20 19.601562 20.238281 19.601562 20.398438 19.441406 20.398438 19.199219L20.398438 18.398438C20.398438 18.160156 20.238281 18 20 18zM20 18"/>
</svg>

<svg xmlns="http://www.w3.org/2000/svg" width="32" height="32" viewBox="0 0 24 24">
    <path d="M14.922 23.2h-.8c-.243 0-.403.16-.403.402 0 .238.16.398.402.398h.8a.4.4 0 0 0 .4-.398c0-.243-.16-.403-.4-.403zm0 0M10.121 23.2h-.8c-.243 0-.4.16-.4.402 0 .238.157.398.4.398h.8a.4.4 0 0 0 .399-.398c0-.243-.16-.403-.399-.403zm0 0M12.52 23.2h-.801c-.239 0-.399.16-.399.402 0 .238.16.398.399.398h.8c.2 0 .403-.16.403-.398 0-.243-.16-.403-.402-.403zm0 0M7.719 23.2h-.797c-.242 0-.402.16-.402.402 0 .238.16.398.402.398h.797a.4.4 0 0 0 .402-.398c0-.243-.16-.403-.402-.403zm0 0M17.32 23.2h-.8c-.239 0-.399.16-.399.402 0 .238.16.398.399.398h.8a.4.4 0 0 0 .399-.398c0-.243-.16-.403-.399-.403zm0 0M20.398 4.8a1.976 1.976 0 0 0-1.714-1.98.4.4 0 0 0-.125-.02h-2.16v-.402a.8.8 0 0 0-.797-.796h-1.204v-.403C14.398.52 13.878 0 13.2 0h-2.398c-.68 0-1.2.559-1.2 1.2v.402H8.399a.8.8 0 0 0-.796.796v.403h-2c-.141 0-.274.011-.403.039H5.16a.248.248 0 0 0-.07.023 1.962 1.962 0 0 0-1.332 1.145c-.016.023-.028.047-.04.07-.054.172-.09.34-.109.508v.012c-.004.027-.004.054-.004.078-.003.008-.003.015-.003.023V22c0 .61.261 1.148.68 1.512.019.035.046.066.077.09.243.199.563.359.88.398h.081c.028 0 .055-.004.082-.008.067.004.13.008.2.008.117 0 .238-.04.32-.16l14.34-18.727a.38.38 0 0 0 .136-.312zm-12-2.402H10c.238 0 .398-.16.398-.398v-.8c0-.24.16-.4.403-.4h2.398a.4.4 0 0 1 .403.4V2c0 .238.16.398.398.398h1.602V5.2H8.398zm-3 20.801c-.558-.12-1-.597-1-1.199V4.8c0-.12.043-.28.082-.402a.401.401 0 0 0 .02-.093c.145-.328.426-.575.781-.664h.078a.42.42 0 0 1 .114-.036c.039-.003.082-.003.129-.003h2v1.59a.287.287 0 0 0 0 .128c.074.371.351.637.71.676h.008C8.348 6 8.371 6 8.398 6h7.204c.16 0 .32-.04.437-.121a.364.364 0 0 0 .121-.11.793.793 0 0 0 .238-.57V3.602h2c.41 0 .786.222 1.004.554.008.028.02.059.04.082.027.04.05.078.07.121a.96.96 0 0 1 .082.329zm0 0M20 6c-.238 0-.398.16-.398.398V7.2c0 .242.16.403.398.403.238 0 .398-.16.398-.403v-.8c0-.239-.16-.399-.398-.399zm0 0M20 10.8c-.238 0-.398.16-.398.4v.8c0 .238.16.398.398.398.238 0 .398-.16.398-.398v-.8c0-.24-.16-.4-.398-.4zm0 0M20 13.2c-.238 0-.398.16-.398.402v.796c0 .243.16.403.398.403.238 0 .398-.16.398-.403v-.796c0-.243-.16-.403-.398-.403zm0 0M19.281 22.8c-.12.16-.281.24-.48.321-.2.078-.32.32-.242.52.043.16.203.28.363.28.039 0 .078 0 .078-.042.32-.078.602-.277.84-.52a.385.385 0 0 0 0-.558.385.385 0 0 0-.559 0zm0 0M20 8.398c-.238 0-.398.16-.398.403v.8c0 .239.16.399.398.399.238 0 .398-.16.398-.398V8.8c0-.242-.16-.403-.398-.403zm0 0M20 20.398c-.238 0-.398.16-.398.403v.8c0 .239.16.399.398.399.238 0 .398-.16.398-.398V20.8c0-.242-.16-.403-.398-.403zm0 0M20 15.602c-.238 0-.398.16-.398.398v.8c0 .24.16.4.398.4.238 0 .398-.16.398-.4V16c0-.238-.16-.398-.398-.398zm0 0M20 18c-.238 0-.398.16-.398.398v.801c0 .242.16.403.398.403.238 0 .398-.16.398-.403v-.8c0-.239-.16-.399-.398-.399zm0 0"/>
</svg>
